X:121
T:The Little Yellow Road
N:"Animated" "collected by F. O'Neill"
B:O'Neill's 121
Z:Transcribed by henrik.norbeck@mailbox.swipnet.se
M:6/8
L:1/8
K:G
D|.G.G.G GA.F|.G.G.G ABc|dcB dcAG|F3 DEF|
.G.G.G GAF|.G.G.G ABc|edcB dcAF|G3 G2||
d|.d.d.d edB|.c.c.c dcA|.B.B.B BAG|F3 DEF|
.G.G.G GAF|.G.G.G ABc|edcB dcAF|G3 G2||
B|.d.d.d d/f/e/d/c/B/|.c.c.c c/e/d/c/B/A/|.B.B.B B/d/c/B/A/G/|FAF DEF|
G/F/E/F/G/A/ B/A/G/F/G/A/|G/F/E/F/G/A/ B2 d|edcB dcAF|G3 G2||
